!!!Genre:	Bolgarish
!!!Mode:	Freygish
!!!Listening/dance:	dance
!!!:	*C:
!!!One_Mode:	no
**kern
*I"P1
*clefG2
*k[b-e-a-]
*G:frey
*M2/4
*>A
=1
8gL
16gL
16gJJ
8gL
16gL
16gJJ
=2
8gL
16gL
16gJJ
8gL
16gL
16gJJ
=3
8gL
8gg
8ff
8ee-J
=4
8ddL
8cc
8bn
8a-J
=5
8g
8r
12bnL
12g
12bJ
=6
12ddL
12bn
12ddJ
8gg
8r
=7!|:
*>B
8bnL
8ccJ
[4dd
=8
8ddL]
8gJ
(16ee-LL
16ddJ)
8ccJ
=9
8.ddL
16bnJk
12ccL
12b
12a-J
=10
4.bn
8g
=11
8gL
8a-J
[4bn
=12
8bL]
(16bnL
16ddJJ)
16ccLL
16bJ
8a-J
=13
4bn
12a-L
12g
12fJ
=14
2g
=15
(8qg/
8bnL)
8ccJ
[4dd
=16
8ddL]
16ddL
16ffJJ
12ee-L
12dd
12ccJ
=17
8dd.L
16bnJk
12ccL
12b
12a-J
=18
4.bn
16a-LL
16gJJ
=19
8fL
16fL
16fJJ
8fL
8fJ
=20
8gL
8a-J
12ccL
12bn
12a-J
=21
[2g
=22
4g]
4r
=23:|!|:
*>C
4ff
8ggL
8aa-J
=24
8ggL
8ff
8ee-
8ddJ
=25
4.ee-
8dd
=26
(8qff/
8ee-L)
8ddJ
4cc
=27
12ddL
12ee-
12ffJ
12ee-L
12dd
12ccJ
=28
12bnL
12cc
12ddJ
12ccL
12b
12a-J
=29
4g
12bnL
12g
12bJ
=30
12ddL
12bn
12ddJ
4gg
=31:|!
2g
=32
4g
4r
=33||
*>D
*k[]
*>bM
*C:
8ee
8r
[4ee
=34
8eeL]
16ffL
16eeJJ
8ddL
8ccJ
=35
8gg
8r
[4gg
=36
8ggL]
16aaL
16ggJJ
8ffL
8eeJ
=37
4.bb-X
8aa
=38
8bb-XL
8aa
8gg
8ff#XJ
=39
2gg
=40
8eeL
16ffL
16eeJJ
8ddL
8ccJ
=41
8ee
8r
[4ee
=42
8eeL]
16ffL
16eeJJ
8ddL
8ccJ
=43
8gg
8r
[4gg
=44
8ggL]
16aaL
16ggJJ
8ffL
8eeJ
=45
8ddL
8aa
8gg
8ffJ
=46
8eeL
8cc
8dd
8bJ
=47
[2cc
=48
4cc]
8r
*>E
*>eM
*G:frey
8g
=49||
*k[b-e-a-]
8bnL
16r
(16gJk
8ccL)
16r
(16gJk
=50
8ddL)
16r
(16gJk
8ee-L)
16r
(16gJk
=51
8ddL)
16r
(16gJk
8ee-L)
16r
16gJk
=52
4.dd
8cc
=53
4bn
4cc
=54
8ddL
8cc
8bn
8a-J
=55
8g
8r
12bnL
12g
12bJ
=56
12ddL
12bn
12ddJ
8gg
8r
=57
(8qg/
4bn)
(8qg/
4cc)
=58
(8qg/
4dd)
(8qg/
4ee-)
=59
16ffLL
16gg
16aa-
16ggJJ
16ffLL
16ee-
16dd
16ccJJ
=60
16bnLL
16cc
16dd
16ccJJ
16bLL
16a-
16g
16fJJ
=61
8fL
16fL
16fJJ
8fL
8fJ
=62
8.gL
16a-Jk
12ccL
12bn
12a-J
=63
2g
=64
8g
8r
4r
==
*-
